X: 1
T: North Wind, The
M: 9/8
L: 1/8
R: slip jig
K: Edor
~E3 BGB AFD|~E3 BGB ABd|~E3 GBd AFD|1agf efd BAF:|2afa gfe dBG|:
AeA c2A dcB|AeA c2A EFG|AeA cAc dcB|GBG E2F GFE|
~A3 edc dBG|Ace def ecA|dfd agf gfe|dBG GAB AFD:|
